X:1
T:Beautiful Words of Jesus
T:Beautiful Words of Jesus
T:Isaac Hickman Meredith
T:Eliza Edmunds Hewitt, 1903
T:Public Domain Courtesy of the Cyber Hymnal™
T:Public Domain Courtesy of the Cyber Hymnal™
C:Isaac Hickman Meredith
Z:Public Domain
Z:Courtesy of the Cyber Hymnal™
%%score ( 1 2 ) 3
L:1/8
Q:1/4=105
M:6/8
K:F
V:1 treble 
V:2 treble 
V:3 bass 
V:1
 [FA][CG][CF] [Fc]2 [Fd] | [Fc]3 [FA]3 | [FA][Fc][FB] [FA]2 [EG] | [CF]6 | %4
w: 1.~Beau- ti- ful words of|Je- sus,|Spok- en so long a-|go,|
w: 2.~Beau- ti- ful words of|Je- sus,|Cheer- ing us day by|day;|
w: 3.~Beau- ti- ful words of|Je- sus,|Tok- ens of end- less|rest,|
 [DF][^CE][DF] (B^c)[Fd] | [Fc]3 [FA]3 | [EG][^D^F][EG] [Ge]2 [=F=d] | [Ec]6 | %8
w: Yet, as we sing * them|o- ver,|Dear- er to us they|grow,|
w: Throw- ing a gleam * of|sun- shine|O- ver a cloud- y|way;|
w: When, by and by, * we|en- ter|In- to His pre- sence|blest;|
"^Duet Ladies’ Voices" [GB][GB][GB] ([Bd][Ac])[GB] | [FA]3 [Ac]3 | [GB][GB][GB] ([Bd][Ac])[GB] | %11
w: Call- ing the hea- * vy|la- den,|Call- ing to hearts * op-|
w: Cast- ing on Him * the|bur- den|We are too weak * to|
w: There shall we see * His|beau- ty,|Meet with Him face * to|
 [FA]6 |"^All Voices" [FA][FA][FA] [FA]2 [FA] | [FB]3 !fermata![F=B]3 | [Fc][FA][CF] [FA]2 [EG] | %15
w: pressed,|“Come un- to Me, ye|wear- y;|Come, I will give you|
w: bear;|He will give grace suf-|fi- cient;|He will re- gard our|
w: face;|There shall we sing His|glo- ry,|Prais- ing His match- less|
 [CF]6 ||"^Refrain" (z [FA][FA] z) ([EA][EA]) | (z [EB][EB] [CEBc]) [Ece][DBd] | %18
w: rest.”|||
w: prayer.|* * Hear *|* * * the call|
w: grace.|||
 z [EB][EB] (z [CE][CE]) | z [CF][CF] z [CF][CF] | z [CF][CF] (z [CF][CF]) | %21
w: |||
w: |||
w: |||
 z [CE][CE] [G,CEG] [CEc][EGe] | [EGe]3 [DFd]3 | [CEc]6 | (z [FA][FA]) (z [_EA][EA]) | %25
w: ||||
w: * * * of His|* voice,|so||
w: ||||
 z [EB][EB] [CEBc][Ece][DBd] | z [EB][EB] (z [CE][CE]) | z [CF][CF] z [CF][CF] | %28
w: |||
w: * * * sweet; Bring|||
w: |||
 z [FA][FA] (z [GA][GA]) | edA (cB)F | (z [A,CF]) (z [B,CE]) x4 | z [A,C][A,C] [A,CF]2 z |] %32
w: ||||
w: |* * your load * to|||
w: ||||
V:2
 x6 | x6 | x6 | x6 | x3 F2 x | x6 | x6 | x6 | x6 | x6 | x6 | x6 | x6 | x6 | x6 | x6 || %16
 [Cc]3 [Cc]3 | [Cc-]3 x3 | [Cc]3 [B,B]3 | [A,A-]3 [A,A]3 | [A,A]3 [_A,_A]3 | [G,G-]3 x3 | x6 | x6 | %24
 [Cc]3 .[Cc]2 x | [Cc-]3 x3 | [Cc]3 [B,B]3 | [A,A-]3 [A,A]3 | [Cc]3 [^C^c]3 | [FA]2 [DG]2 x2 | %30
 A3 A, G3 B, | F3- x3 |] %32
V:3
 [F,C][F,B,][F,A,] [F,A,]2 [F,B,] | [F,A,]3 [F,C]3 | [F,C][F,A,][B,,D] [C,C]2 [C,B,] | [F,A,]6 | %4
 [B,,B,][B,,B,][B,,B,] ([D,B,][C,A,])[B,,B,] | [F,A,]3 [F,C]3 | [G,C][G,C][G,C] [G,=B,]2 [G,B,] | %7
 [C,C]6 | G,B,C (EC)B, | (F,A,C) (FCA,) | G,B,C ECB, | (F,A,CFCA,) | %12
 [F,C][F,C][F,C] [_E,C]2 [E,C] | [D,B,]3 !fermata![_D,^G,]3 | [C,A,][C,C][C,A,] [C,C]2 [C,B,] | %15
 [F,A,]6 || [F,,F,]3 [^F,,^F,]3 | [G,,G,]3 [C,,C,]3 | [G,,G,]3 [C,,C,]3 | [F,,F,]3 [C,,C,]3 | %20
 [F,,F,]3 [F,,F,]3 | [G,,F,]3 [G,,G,]3 | (G,,G,A,) (=B,A,G,) | (C,G,A,B,A,G,) | %24
 [F,,F,]3 [^F,,^F,]3 | [G,,G,]3 [C,,C,]3 | [G,,G,]3 [C,,C,]3 | [F,,F,]3 [C,,C,]3 | %28
 [F,,F,]3 [E,,E,]3 | [D,,D,]3 [G,,G,]3 | C,,3 C,,3 x2 | (E,C,A,, [F,,F,]2) z |] %32

